dist/images/svg/empty.svg

<?xml version="1.0" encoding="UTF-8"?>
<svg width="38px" height="48px" viewBox="0 0 38 48" version="1.1" xmlns="http://www.w3.org/2000/svg" xmlns:xlink="http://www.w3.org/1999/xlink">
    <!-- Generator: Sketch 49.1 (51147) - http://www.bohemiancoding.com/sketch -->
    <title>Shape</title>
    <desc>Created with Sketch.</desc>
    <defs></defs>
    <g id="Zeplin" stroke="none" stroke-width="1" fill="none" fill-rule="evenodd">
        <g id="FFP-—-Colors-and-icons" transform="translate(-832.000000, -853.000000)" fill="#1B39BA" fill-rule="nonzero">
            <g id="File-type-/-Word-Copy-7" transform="translate(832.000000, 853.000000)">
                <path d="M27.006897,0 L38,11.0142212 L38,48 L0,48 L0,0 L27.006897,0 Z M27.006897,3.0189209 L27.006897,11.0142212 L35.0204468,11.0142212 L27.006897,3.0189209 Z M2,46 L36,46 L36,13 L25,13 L25,2 L2,2 L2,46 Z M7.90909091,14 L16.0909091,14 C16.5927273,14 17,13.553 17,13 C17,12.447 16.5927273,12 16.0909091,12 L7.90909091,12 C7.40727273,12 7,12.447 7,13 C7,13.553 7.40727273,14 7.90909091,14 Z M7.90909091,20 L29.0909091,20 C29.5927273,20 30,19.553 30,19 C30,18.447 29.5927273,18 29.0909091,18 L7.90909091,18 C7.40727273,18 7,18.447 7,19 C7,19.553 7.40727273,20 7.90909091,20 Z M7.90909091,26 L29.0909091,26 C29.5927273,26 30,25.553 30,25 C30,24.447 29.5927273,24 29.0909091,24 L7.90909091,24 C7.40727273,24 7,24.447 7,25 C7,25.553 7.40727273,26 7.90909091,26 Z M7.90909091,32 L29.0909091,32 C29.5927273,32 30,31.553 30,31 C30,30.447 29.5927273,30 29.0909091,30 L7.90909091,30 C7.40727273,30 7,30.447 7,31 C7,31.553 7.40727273,32 7.90909091,32 Z" id="Shape"></path>
            </g>
        </g>
    </g>
</svg>

<svg width="38" height="48" viewBox="0 0 38 48" xmlns="http://www.w3.org/2000/svg"><title>Shape</title><path d="M27.007 0L38 11.014V48H0V0h27.007zm0 3.019v7.995h8.013L27.007 3.02zM2 46h34V13H25V2H2v44zm5.91-32h8.18c.503 0 .91-.447.91-1 0-.553-.407-1-.91-1H7.91c-.503 0-.91.447-.91 1 0 .553.407 1 .91 1zm0 6h21.18c.503 0 .91-.447.91-1 0-.553-.407-1-.91-1H7.91c-.503 0-.91.447-.91 1 0 .553.407 1 .91 1zm0 6h21.18c.503 0 .91-.447.91-1 0-.553-.407-1-.91-1H7.91c-.503 0-.91.447-.91 1 0 .553.407 1 .91 1zm0 6h21.18c.503 0 .91-.447.91-1 0-.553-.407-1-.91-1H7.91c-.503 0-.91.447-.91 1 0 .553.407 1 .91 1z" fill="#1B39BA"/></svg>
